icons/outline/folder-arrow-down.svg

<svg width="24" height="24" viewBox="0 0 24 24" fill="none" xmlns="http://www.w3.org/2000/svg">
<path d="M9 13.5L12 16.5M12 16.5L15 13.5M12 16.5L12 10.5M13.0607 6.31066L10.9393 4.18934C10.658 3.90804 10.2765 3.75 9.87868 3.75H4.5C3.25736 3.75 2.25 4.75736 2.25 6V18C2.25 19.2426 3.25736 20.25 4.5 20.25H19.5C20.7426 20.25 21.75 19.2426 21.75 18V9C21.75 7.75736 20.7426 6.75 19.5 6.75H14.1213C13.7235 6.75 13.342 6.59197 13.0607 6.31066Z" stroke="#0F172A" stroke-width="1.5" stroke-linecap="round" stroke-linejoin="round"/>
</svg>

<svg xmlns="http://www.w3.org/2000/svg" fill="none" viewBox="0 0 24 24" stroke-width="1.5" stroke="currentColor" aria-hidden="true" data-slot="icon">
  <path stroke-linecap="round" stroke-linejoin="round" d="m9 13.5 3 3m0 0 3-3m-3 3v-6m1.06-4.19-2.12-2.12a1.5 1.5 0 0 0-1.061-.44H4.5A2.25 2.25 0 0 0 2.25 6v12a2.25 2.25 0 0 0 2.25 2.25h15A2.25 2.25 0 0 0 21.75 18V9a2.25 2.25 0 0 0-2.25-2.25h-5.379a1.5 1.5 0 0 1-1.06-.44Z"/>
</svg>
